modules/cactus-icons/svgs/navigation/search.svg

<svg xmlns="http://www.w3.org/2000/svg" width="24" height="24" viewBox="0 0 24 24">
  <path d="M17.031799,15.6175854 L22.7071068,21.2928932 C23.0976311,21.6834175 23.0976311,22.3165825 22.7071068,22.7071068 C22.3165825,23.0976311 21.6834175,23.0976311 21.2928932,22.7071068 L15.6175854,17.031799 C14.0778928,18.2634711 12.1249024,19 10,19 C5.02971525,19 1,14.9702847 1,10 C1,5.02971525 5.02971525,1 10,1 C14.9702847,1 19,5.02971525 19,10 C19,12.1249024 18.2634711,14.0778928 17.031799,15.6175854 Z M17,10 C17,6.13428475 13.8657153,3 10,3 C6.13428475,3 3,6.13428475 3,10 C3,13.8657153 6.13428475,17 10,17 C13.8657153,17 17,13.8657153 17,10 Z"/>
</svg>

<svg width="24" height="24" viewBox="0 0 24 24" xmlns="http://www.w3.org/2000/svg">
<path d="M 15.6175,17.0321 C 14.0778,18.2636 12.1249,19 10,19 5.02944,19 1,14.9706 1,10 1,5.02944 5.02944,1 10,1 c 4.9706,0 9,4.02944 9,9 0,2.1249 -0.7364,4.0778 -1.9679,5.6175 L 22.71,21.29 c 0.3905,0.3905 0.3905,1.0295 0,1.42 -0.3905,0.3905 -1.0295,0.3905 -1.42,0 z M 10,3 c -3.86599,0 -7,3.13401 -7,7 0,3.866 3.13401,7 7,7 3.866,0 7,-3.134 7,-7 0,-3.86599 -3.134,-7 -7,-7 z"/>
</svg>
